X: 20359
T: John Carty's
R: reel
M: 4/4
K: Edorian
B2AF ~E3G|F2ED FAAd|BFAF ~E3d|c2BA FEFA|
BFAF EFGE|F2EF DEFA|BFAF ~E3d|cdBA BE~E2||
defd eAef|defe dA~A2|defd eafe|1 dBAD FEE2:|2 dBAF EFGA||

